X:1
T:Danger Waters
M:4/4
L:1/8
K:Eb
 z G2 G F2 E2| G8-| G E2 E F2 G2| A8-| A A2 A G2 F2| G6- GE| F2 FF-F-E D2|\
 E E2 E- E4| z G2 G F2 E2| G8-| G E2 E F2 G2| A8-| A A2 A G2 F2| GG G2G-F E2|\
 FF F2F-E E2|
